app/public/dtpr-icons/yes-accountable.svg

<svg width="36" height="36" viewBox="0 0 36 36" fill="none" xmlns="http://www.w3.org/2000/svg">
<path fill-rule="evenodd" clip-rule="evenodd" d="M17.1106 26.1868H15.591H15.5159C15.1155 26.1868 14.9193 26.6673 15.2046 26.9426L17.6872 29.4342C17.8654 29.6124 18.1406 29.6124 18.3188 29.4342L20.8014 26.9516C21.0777 26.6673 20.8815 26.1868 20.4811 26.1868H18.8894V17.1123C19.1407 17.4467 19.417 17.764 19.7163 18.0633C20.5332 18.8802 21.4852 19.5218 22.5453 19.9703C23.3691 20.3187 24.231 20.5379 25.119 20.626V22.2607C25.119 22.6611 25.5985 22.8573 25.8838 22.581L28.3664 20.0984C28.5445 19.9203 28.5445 19.645 28.3664 19.4668L25.8748 16.9842C25.5985 16.6999 25.119 16.8951 25.119 17.2955V17.3706V18.8351C24.4713 18.755 23.8406 18.5859 23.238 18.3306C22.3901 17.9722 21.6283 17.4587 20.9746 16.805C20.3209 16.1513 19.8074 15.3895 19.449 14.5416C19.0786 13.6647 18.8894 12.7327 18.8894 11.7717V7.32206C18.8894 6.83055 18.491 6.43213 17.9995 6.43213C17.509 6.43213 17.1106 6.83055 17.1106 7.32206V26.1868Z" fill="black"/>
<rect x="3" y="3" width="30" height="30" rx="3" stroke="black" stroke-width="2"/>
</svg>

<svg xmlns="http://www.w3.org/2000/svg" width="36" height="36" fill="none"><path fill="#000" fill-rule="evenodd" d="M17.11 26.187h-1.594a.44.44 0 0 0-.311.756l2.482 2.491a.44.44 0 0 0 .632 0l2.482-2.482a.45.45 0 0 0-.32-.765H18.89v-9.075a8.95 8.95 0 0 0 3.656 2.858 8.8 8.8 0 0 0 2.574.656v1.635c0 .4.48.596.765.32l2.482-2.483a.44.44 0 0 0 0-.631l-2.491-2.483a.44.44 0 0 0-.756.311v1.54a7.093 7.093 0 0 1-4.144-2.03 7.1 7.1 0 0 1-2.086-5.033v-4.45a.89.89 0 1 0-1.778 0z" clip-rule="evenodd"/><rect width="30" height="30" x="3" y="3" stroke="#000" stroke-width="2" rx="3"/></svg>
